X:73
T:Blues Composition 
L:1/4
M:4/4
K:Bb
V:Melody
z B,/>_D/ E/>F/ E/>_D/|z _D F B|z B,/>_D/ E/>F/ E/>_D/|z _D F B|
z B,/>_D/ E/>F/ E/>_D/|z _D F B|z B,/>_D/ E/>F/ E/>_D/|z _D F B|
z B<_A B|z _A<F _A|z F<E F|z _A E B,||
V:Right
[D4_A4]|[D4_A4]|[D4_A4]|[D4_A4]|
[_D4G4]|[_D4G4]|[D4_A4]|[D4_A4]|
[E4A4]|[_D4G4]|[D4_A4]|[D4_A4]||
V:Left
B,,4|B,,4|B,,4|B,,4|
E,4|E,4|B,,4|B,,4|
F,4|E,4|B,,4|B,,4||
